X:1
T:Title
%%score ( 1 2 ) ( 3 4 )
L:1/8
Q:1/4=75
M:6/8
K:A
V:1 treble nm="Strings 1, Soprano"
V:2 treble 
V:3 bass nm="Strings 1, Bass"
V:4 bass 
V:1
 z3 z2 [CE] | [CE]2 [CE] [Ec]2 [EA] | [FA][EG][DF] [CE]2 E | [Fd]2 [Fd] [Ec]2 [EA] | %4
w: 1.~O~|God,~ in spire~ our~|morn * ing~ hymn~ Of~|love~ and~ gra ti|
 [EB]3- [EB]2 E | [Ae]2 [Ae] [Ac]2 [EA] | [FA]2 [DF] [Fd]2 [FB] | cd[EB] [EA]2 [EG] | %8
w: tude;~ * Oh,~|bless~ the~ sa cri|fice~ we~ bring,~ Thou~|Source~ * of~ eve ry~|
 [EA]3- [EA]2 [CE] | z3 .E3 | [CA]2 [CA] [CA]2 [CA] | [Ec]2 [EA] BA[EG] | [CA]3- [CA]2 [Ec] | %13
w: good.~ * *|||||
 [Fd]2 [Fd] [Fd]2 [FA] | [Ec]2 [Ec] [Ec]2 [Dc] | [FB]2 [FA] GF[EG] | [EA]6 |] %17
w: ||||
V:2
 x6 | x6 | x6 | x6 | x6 | x6 | x6 | .E3 z3 | x6 | [CE]2 [CE] C-[CF][CG] | x6 | z3 .E3 | x6 | x6 | %14
 x6 | z3 .E3 | x6 |] %17
V:3
 z3 z2 [A,,A,] | [A,,A,]2 [A,,A,] [A,,A,]2 [C,A,] | [D,A,]2 [D,A,] [A,,A,]2 [A,C] | %3
 [D,A,]2 [D,A,] [A,,A,]2 [C,A,] | [E,G,]3- [E,G,]2 [G,D] | [A,C]2 [A,C] [A,E]2 [A,C] | %6
 [D,D]2 [D,A,] [D,A,]2 [D,A,] | .A,3 z3 | [A,,C]3- [A,,C]2 [A,,A,] | %9
 [A,,A,]2 [A,,A,] [A,,A,]2 [A,,E,] | [A,,E,]2 [A,,E,] [A,,E,]2 [A,,E,] | z3 .G,3 | %12
 [A,,A,]3- [A,,A,]2 A, | [D,A,]2 [D,A,] [D,A,]2 [D,A,] | [A,,A,]2 [A,,A,] [A,,A,]2 [A,,A,] | %15
 [D,A,]2 [D,A,] [E,D]2 [E,D] | [A,,C]6 |] %17
V:4
 x6 | x6 | x6 | x6 | x6 | x6 | x6 | E,-[E,B,][E,D] [E,C]2 [E,B,] | x6 | x6 | x6 | %11
 [A,,A,]2 [C,A,] E,-[E,A,][E,B,] | x6 | x6 | x6 | x6 | x6 |] %17

